svgs/regular/shelves-empty.svg

<svg xmlns="http://www.w3.org/2000/svg" viewBox="0 0 640 512"><!--! Font Awesome Pro 6.0.0-alpha3 by @fontawesome - https://fontawesome.com License - https://fontawesome.com/license (Commercial License) --><path d="M616 0c-13.25 0-24 10.75-24 24V144h-544V24C48 10.75 37.25 0 24 0S0 10.75 0 24v464C0 501.3 10.75 512 24 512s24-10.75 24-24V448h544v40c0 13.25 10.75 24 24 24S640 501.3 640 488V24C640 10.75 629.3 0 616 0zM48 400V192h544v208H48z"/></svg>

<svg xmlns="http://www.w3.org/2000/svg" viewBox="0 0 640 512"><!-- Font Awesome Pro 6.0.0-alpha2 by @fontawesome - https://fontawesome.com License - https://fontawesome.com/license (Commercial License) --><path d="M616 0C602.75 0 592 10.75 592 24V144H48V24C48 10.75 37.25 0 24 0S0 10.75 0 24V488C0 501.25 10.75 512 24 512S48 501.25 48 488V448H592V488C592 501.25 602.75 512 616 512S640 501.25 640 488V24C640 10.75 629.25 0 616 0ZM48 400V192H592V400H48Z"/></svg>
